wrench-check-outline.svg

<svg fill="currentColor" viewBox="0 0 24 24"><path d="M9 1.09V6H7V1.09C4.16 1.57 2 4.03 2 7c0 2.22 1.21 4.15 3 5.19V21c0 .55.45 1 1 1h4c.55 0 1-.45 1-1v-8.81c1.79-1.04 3-2.97 3-5.19 0-2.97-2.16-5.43-5-5.91m1 9.37-1 .58V20H7v-8.96l-1-.58C4.77 9.74 4 8.42 4 7c0-1 .37-1.94 1-2.65V8h6V4.35c.63.71 1 1.65 1 2.65 0 1.42-.77 2.74-2 3.46M21.6 13l1.4 1.41L16.47 21 13 17.5l1.4-1.41 2.07 2.08z"/></svg>

<svg  viewBox="0 0 24 24" fill="currentColor"><path  d="M9 1.09V6H7V1.09C4.16 1.57 2 4.03 2 7C2 9.22 3.21 11.15 5 12.19V21C5 21.55 5.45 22 6 22H10C10.55 22 11 21.55 11 21V12.19C12.79 11.15 14 9.22 14 7C14 4.03 11.84 1.57 9 1.09M10 10.46L9 11.04V20H7V11.04L6 10.46C4.77 9.74 4 8.42 4 7C4 6 4.37 5.06 5 4.35V8H11V4.35C11.63 5.06 12 6 12 7C12 8.42 11.23 9.74 10 10.46M21.6 13L23 14.41L16.47 21L13 17.5L14.4 16.09L16.47 18.17L21.6 13"/></svg>
